X:1
T:Title
%%score { ( 1 3 ) | ( 2 4 ) }
L:1/8
M:4/4
K:D
V:1 treble nm="Grand Piano"
V:3 treble 
V:2 bass 
V:4 bass 
V:1
 z4 z2[Q:1/4=112] [Fd]2 | [Gc]2 [Ge]2 [GB]2 [Gc]2 | [FA]4 z4 | [CGB]2 [A,CE]2 [A,CE]2 [CGB]2 | %4
[M:3/4] [DFA]6 |[M:1/4] [Fd]2 |[M:4/4] [Gc]2 [Ge]2 [GB]2 [Gc]2 | [FA]4 z4 | [GB]2 [Ge]2 d2 [Ec]2 | %9
[M:3/4] [Fd]6 |[M:1/4] Bc |[M:4/4] [^Gd]2 B2 G2 E2 | [EA]3 [^GB] c2 Bc | ed^G-[Gd] [DEB]2 [EGc]2 | %14
[M:3/4] [CA]6 |[M:1/4] B z |[M:4/4] [DAd]2 [DFA]2 [A,CG]2 [A,CE]2 | D2- [DB]2 [A,DA]2 .[DFd]2 | %18
 [DGB]2 [EGc][Fd] [DFA]2 [Ec]2 |[M:3/4] [Fd]6 |] %20
V:2
 z4 z2 [D,A,]2 | [E,A,]2 [A,,A,]2 [C,A,]2 [A,,A,]2 | [D,A,]2 A,2 F,2 D,2 | A,,2 A,,2 A,,2 A,,2 | %4
[M:3/4] D,6 |[M:1/4] [D,A,]2 |[M:4/4] [E,A,]2 [A,,A,]2 [C,A,]2 [A,,A,]2 | %7
 [D,A,]2 z2 [F,A,]2 [D,A,]2 | [G,B,]2 [E,B,]2 [A,F]2 [A,,A,]2 |[M:3/4] [D,A,]6 | %10
[M:1/4] [E,E]-[E,A,E] |[M:4/4] [E,B,]2 [E,^G,E]2 [E,B,E]2 [G,D]2 | %12
 [A,C]3 [E,B,] [A,A]2 [E,E]-[E,A,E] | E^G[K:bass] z B, ^G,2 E,2 |[M:3/4] A,6 | %15
[M:1/4] z[K:treble] c |[M:4/4][K:bass] F,2 D,2 E,2 A,,2 | D,2 G,2 F,2 z[K:treble] c | %18
 G,2[K:bass] z D A,2 [A,,A,]2 |[M:3/4] [D,A,]6 |] %20
V:3
 x8 | x8 | z2 D2 [DAd]2 [DFA]2 | x8 |[M:3/4] x6 |[M:1/4] x2 |[M:4/4] x8 | z2 [A,D]2 [Dd]2 [Fc]2 | %8
 x8 |[M:3/4] x6 |[M:1/4] x2 |[M:4/4] x8 | x8 | z2 .[Cc]2 z4 |[M:3/4] x6 |[M:1/4] [EA]2 | %16
[M:4/4] x8 | [A,F]2 z2 z4 | x8 |[M:3/4] x6 |] %20
V:4
 x8 | x8 | x8 | x8 |[M:3/4] x6 |[M:1/4] x2 |[M:4/4] x8 | x8 | x8 |[M:3/4] x6 |[M:1/4] ^G, z | %11
[M:4/4] x8 | z4 z2 .^G,2 | [^G,B,]2[K:bass] E,2 z4 |[M:3/4] x6 |[M:1/4] G,2[K:treble] | %16
[M:4/4][K:bass] x8 | z4 z2 D,2[K:treble] | z2[K:bass] E,2 z4 |[M:3/4] x6 |] %20

